X:1
T: Miss Barbara Cunningham
C:
R:Strathspey
Q: 128
K:G
M:4/4
L:1/16
|:B2|G3g d3B G3d BG3|E2FG A3G FD3 D3B|G3g d3B G3d BG3|E3A GFEF G4 G,2B2|
G3g d3B G3d BG3|E2FG A3G FD3 D3B|G3g d3B G3d BG3|E3A GFEF G4 G,2ga|
b3g dg3 eg3 d3B|c3a B3g aA3 A2ga|b3g dg3 eg3 d3B|e3a d3f g4 G2ga|
b3g a3f ge3 f3d|ec3 d3B a3A A3B|G3D B3G d3B ge3|d3g D3F G4 G,2:|
